X: 35955
T: Sarah Kelly's Delight
R: reel
M: 4/4
K: Gmajor
|:(3DEF|G2Bd GdBd|GdBd cAFA|D2FA DAFA|defd cAFA|
G2Bd GdBd|GdBd cAFA|DEFG ABce|1 dcAF G2:|2 dcAF G3||
|:E|DGBd gfag|fd~d2 afd2|DFAB c3d|ed^cd =cAFA|
DGBd gfag|fd~d2 afde|=f3a g^fdc|1 BGAF G3:|2 BGAF G2||

